frontend/src/assets/img/logo-alt.svg

<svg xmlns="http://www.w3.org/2000/svg" width="104" height="31" xml:space="preserve"><path class="st1" d="M14.1 2.4c0-.4.2-.6.6-.6.4 0 .6.2.6.6v2.8l1.4-1.5c.1-.1.3-.2.5-.2.3 0 .6.2.6.6 0 .2-.1.3-.2.4l-.9 1L18 7.2c.1.1.1.3.1.4 0 .3-.3.6-.6.6s-.5-.2-.6-.3l-1.2-1.7-.4.4v.9c0 .4-.2.6-.6.6-.4 0-.6-.2-.6-.6zM19 1.7c.4 0 .6.3.6.6 0 .4-.2.7-.6.7-.4 0-.6-.3-.6-.6-.1-.4.2-.7.6-.7zm-.6 2.4c0-.3.1-.6.6-.6s.6.3.6.6v3.4c0 .3-.1.6-.6.6s-.6-.3-.6-.6zM24.3 6.8c0 .5.1.6.1.8 0 .3-.3.5-.6.5-.5 0-.7-.3-.7-.7-.5.5-1 .7-1.7.7S20 7.6 20 6.8c0-1 .8-1.3 1.7-1.4l.8-.1c.3 0 .5-.1.5-.5s-.4-.5-.8-.5c-.9 0-.9.7-1.4.7-.3 0-.5-.2-.5-.5 0-.5.7-1.1 2-1.1 1.2 0 2 .4 2 1.3zm-1.2-.9c-.1.1-.4.2-.5.2l-.5.1c-.5.1-.8.2-.8.6 0 .3.3.5.7.5.7 0 1.1-.4 1.1-.9zM24.9 2.4c0-.4.2-.6.6-.6.4 0 .6.2.6.6v5.1c0 .4-.2.6-.6.6-.4 0-.6-.2-.6-.6zM27.4 1.7c.4 0 .6.3.6.6 0 .4-.3.6-.6.6-.4 0-.6-.3-.6-.6s.3-.6.6-.6zm-.6 2.4c0-.3.1-.6.6-.6s.6.3.6.6v3.4c0 .3-.1.6-.6.6s-.6-.3-.6-.6zM7.8 0C5.4 0 3.5 1.9 3.5 4.3s1.9 4.3 4.3 4.3 4.2-2 4.2-4.3S10.1 0 7.8 0Zm0 7.9c-2 0-3.6-1.6-3.6-3.6S5.8.7 7.8.7s3.6 1.6 3.6 3.6-1.6 3.6-3.6 3.6z" style="fill:#d7f7ff" transform="matrix(3.74415 0 0 3.52948 -.94 .527)"/><path class="st2" d="M6.3 1c-1.8.8-2.7 3-1.8 4.8.4.8 1 1.5 1.8 1.8 1.8-1.6 2-4.4.4-6.3-.1-.1-.3-.2-.4-.3Z" style="fill:#0093dd" transform="matrix(3.74415 0 0 3.52948 -.94 .527)"/><path class="st2" d="M3.5 4.3c0-1 .3-1.9 1-2.7-.4-.2-.8-.3-1.3-.3-1.6 0-2.9 1.3-2.9 3s1.3 3 2.9 3c.4 0 .8-.1 1.2-.3-.6-.8-.9-1.7-.9-2.7Z" style="fill:#0093dd" transform="matrix(3.74415 0 0 3.52948 -.94 .527)"/></svg>

<?xml version="1.0" encoding="UTF-8" standalone="no"?>
<!-- Generator: Adobe Illustrator 16.0.4, SVG Export Plug-In . SVG Version: 6.00 Build 0)  -->

<svg
   xmlns:dc="http://purl.org/dc/elements/1.1/"
   xmlns:cc="http://creativecommons.org/ns#"
   xmlns:rdf="http://www.w3.org/1999/02/22-rdf-syntax-ns#"
   xmlns:svg="http://www.w3.org/2000/svg"
   xmlns="http://www.w3.org/2000/svg"
   xmlns:sodipodi="http://sodipodi.sourceforge.net/DTD/sodipodi-0.dtd"
   xmlns:inkscape="http://www.inkscape.org/namespaces/inkscape"
   version="1.1"
   id="Layer_1"
   x="0px"
   y="0px"
   width="104"
   height="31"
   viewBox="0 0 104 31"
   enable-background="new 0 0 37 35"
   xml:space="preserve"
   sodipodi:docname="logo-alt.svg"
   inkscape:version="0.92.3 (2405546, 2018-03-11)"><metadata
   id="metadata4833"><rdf:RDF><cc:Work
       rdf:about=""><dc:format>image/svg+xml</dc:format><dc:type
         rdf:resource="http://purl.org/dc/dcmitype/StillImage" /><dc:title></dc:title></cc:Work></rdf:RDF></metadata><defs
   id="defs4831" /><sodipodi:namedview
   pagecolor="#ffffff"
   bordercolor="#666666"
   borderopacity="1"
   objecttolerance="10"
   gridtolerance="10"
   guidetolerance="10"
   inkscape:pageopacity="0"
   inkscape:pageshadow="2"
   inkscape:window-width="2560"
   inkscape:window-height="1043"
   id="namedview4829"
   showgrid="false"
   inkscape:zoom="6.7428571"
   inkscape:cx="18.5"
   inkscape:cy="17.5"
   inkscape:window-x="1920"
   inkscape:window-y="0"
   inkscape:window-maximized="1"
   inkscape:current-layer="Layer_1" />
<linearGradient
   id="SVGID_1_"
   gradientUnits="userSpaceOnUse"
   x1="231.89549"
   y1="-269.55469"
   x2="231.89549"
   y2="-301.71991"
   gradientTransform="matrix(1,0,0,-1,-213.5,-268.5)">
	<stop
   offset="0"
   style="stop-color:#60EFFF"
   id="stop4821" />
	<stop
   offset="1"
   style="stop-color:#1F89C7"
   id="stop4823" />
</linearGradient>

<g
   id="g4007"
   transform="matrix(3.7441453,0,0,3.5294826,-0.93932752,0.52655834)"><path
     class="st1"
     d="m 14.1,2.4 c 0,-0.4 0.2,-0.6 0.6,-0.6 0.4,0 0.6,0.2 0.6,0.6 v 2.8 l 1.4,-1.5 c 0.1,-0.1 0.3,-0.2 0.5,-0.2 0.3,0 0.6,0.2 0.6,0.6 0,0.2 -0.1,0.3 -0.2,0.4 l -0.9,1 1.3,1.7 c 0.1,0.1 0.1,0.3 0.1,0.4 0,0.3 -0.3,0.6 -0.6,0.6 C 17.2,8.2 17,8 16.9,7.9 L 15.7,6.2 15.3,6.6 v 0.9 c 0,0.4 -0.2,0.6 -0.6,0.6 -0.4,0 -0.6,-0.2 -0.6,-0.6 z"
     id="path3991"
     inkscape:connector-curvature="0"
     style="fill:#d7f7ff" /><path
     class="st1"
     d="m 19,1.7 c 0.4,0 0.6,0.3 0.6,0.6 C 19.6,2.7 19.4,3 19,3 18.6,3 18.4,2.7 18.4,2.4 18.3,2 18.6,1.7 19,1.7 c 0,0 0,0 0,0 z m -0.6,2.4 c 0,-0.3 0.1,-0.6 0.6,-0.6 0.5,0 0.6,0.3 0.6,0.6 v 3.4 c 0,0.3 -0.1,0.6 -0.6,0.6 -0.5,0 -0.6,-0.3 -0.6,-0.6 z"
     id="path3993"
     inkscape:connector-curvature="0"
     style="fill:#d7f7ff" /><path
     class="st1"
     d="m 24.3,6.8 c 0,0.5 0.1,0.6 0.1,0.8 0,0.3 -0.3,0.5 -0.6,0.5 -0.5,0 -0.7,-0.3 -0.7,-0.7 -0.5,0.5 -1,0.7 -1.7,0.7 C 20.7,8.1 20,7.6 20,6.8 20,5.8 20.8,5.5 21.7,5.4 L 22.5,5.3 C 22.8,5.3 23,5.2 23,4.8 23,4.4 22.6,4.3 22.2,4.3 21.3,4.3 21.3,5 20.8,5 20.5,5 20.3,4.8 20.3,4.5 c 0,-0.5 0.7,-1.1 2,-1.1 1.2,0 2,0.4 2,1.3 z M 23.1,5.9 C 23,6 22.7,6.1 22.6,6.1 l -0.5,0.1 c -0.5,0.1 -0.8,0.2 -0.8,0.6 0,0.3 0.3,0.5 0.7,0.5 0.7,0 1.1,-0.4 1.1,-0.9 z"
     id="path3995"
     inkscape:connector-curvature="0"
     style="fill:#d7f7ff" /><path
     class="st1"
     d="m 24.9,2.4 c 0,-0.4 0.2,-0.6 0.6,-0.6 0.4,0 0.6,0.2 0.6,0.6 v 5.1 c 0,0.4 -0.2,0.6 -0.6,0.6 -0.4,0 -0.6,-0.2 -0.6,-0.6 z"
     id="path3997"
     inkscape:connector-curvature="0"
     style="fill:#d7f7ff" /><path
     class="st1"
     d="m 27.4,1.7 c 0.4,0 0.6,0.3 0.6,0.6 0,0.4 -0.3,0.6 -0.6,0.6 -0.4,0 -0.6,-0.3 -0.6,-0.6 0,-0.3 0.3,-0.6 0.6,-0.6 0,0 0,0 0,0 z m -0.6,2.4 c 0,-0.3 0.1,-0.6 0.6,-0.6 0.5,0 0.6,0.3 0.6,0.6 v 3.4 c 0,0.3 -0.1,0.6 -0.6,0.6 -0.5,0 -0.6,-0.3 -0.6,-0.6 z"
     id="path3999"
     inkscape:connector-curvature="0"
     style="fill:#d7f7ff" /><path
     class="st1"
     d="M 7.8,0 C 5.4,0 3.5,1.9 3.5,4.3 3.5,6.7 5.4,8.6 7.8,8.6 10.2,8.6 12,6.6 12,4.3 12,2 10.1,0 7.8,0 Z m 0,7.9 c -2,0 -3.6,-1.6 -3.6,-3.6 0,-2 1.6,-3.6 3.6,-3.6 2,0 3.6,1.6 3.6,3.6 0,0 0,0 0,0 0,2 -1.6,3.6 -3.6,3.6 z"
     id="path4001"
     inkscape:connector-curvature="0"
     style="fill:#d7f7ff" /><path
     class="st2"
     d="M 6.3,1 C 4.5,1.8 3.6,4 4.5,5.8 4.9,6.6 5.5,7.3 6.3,7.6 8.1,6 8.3,3.2 6.7,1.3 6.6,1.2 6.4,1.1 6.3,1 Z"
     id="path4003"
     inkscape:connector-curvature="0"
     style="fill:#0093dd" /><path
     class="st2"
     d="m 3.5,4.3 c 0,-1 0.3,-1.9 1,-2.7 C 4.1,1.4 3.7,1.3 3.2,1.3 c -1.6,0 -2.9,1.3 -2.9,3 0,1.7 1.3,3 2.9,3 C 3.6,7.3 4,7.2 4.4,7 3.8,6.2 3.5,5.3 3.5,4.3 Z"
     id="path4005"
     inkscape:connector-curvature="0"
     style="fill:#0093dd" /></g></svg>
